img/footer-logo.svg

<svg width="150" height="24" viewBox="0 0 150 24" fill="none" xmlns="http://www.w3.org/2000/svg">
<path d="M2.36601 24V20.3286H10.7966V16.5756H10.6606C10.2799 17.1376 9.70878 17.609 8.94731 17.9898C8.18584 18.3705 7.29745 18.5609 6.28215 18.5609C5.12181 18.5609 4.06119 18.2708 3.10028 17.6906C2.15751 17.0923 1.4051 16.2583 0.84306 15.1886C0.28102 14.1008 0 12.8498 0 11.4356C0 10.0396 0.290085 8.79769 0.870255 7.70987C1.46856 6.62205 2.25722 5.77899 3.23626 5.18069C4.23343 4.58239 5.30312 4.28324 6.44533 4.28324C7.47875 4.28324 8.3762 4.5008 9.13768 4.93593C9.91728 5.35293 10.5065 5.88777 10.9054 6.54046H11.0414V4.60959H15.0391V24H2.36601ZM7.61473 14.8895C8.24929 14.8895 8.80227 14.7535 9.27365 14.4815C9.76317 14.2096 10.1348 13.8198 10.3887 13.3121C10.6606 12.7864 10.7966 12.1609 10.7966 11.4356C10.7966 10.7104 10.6606 10.0849 10.3887 9.55916C10.1348 9.03338 9.76317 8.63452 9.27365 8.36256C8.80227 8.09061 8.24929 7.95463 7.61473 7.95463C6.96204 7.95463 6.39093 8.09061 5.90142 8.36256C5.4119 8.63452 5.03116 9.03338 4.75921 9.55916C4.48725 10.0849 4.35127 10.7104 4.35127 11.4356C4.35127 12.1609 4.48725 12.7864 4.75921 13.3121C5.03116 13.8198 5.4119 14.2096 5.90142 14.4815C6.39093 14.7535 6.96204 14.8895 7.61473 14.8895Z" fill="#F2F2F6"/>
<path d="M25.1443 19.0232C23.712 19.0232 22.4067 18.7059 21.2282 18.0713C20.0678 17.4187 19.1523 16.5303 18.4814 15.4062C17.8106 14.2821 17.4752 13.0311 17.4752 11.6532C17.4752 10.2572 17.8106 8.99712 18.4814 7.87304C19.1523 6.74896 20.0678 5.86964 21.2282 5.23508C22.4067 4.60052 23.712 4.28324 25.1443 4.28324C26.5585 4.28324 27.8367 4.59146 28.9789 5.20789C30.1392 5.82432 31.0548 6.7127 31.7256 7.87304C32.4146 9.03338 32.7591 10.3932 32.7591 11.9524C32.7591 12.0974 32.7591 12.2606 32.7591 12.4419C32.7591 12.6051 32.7591 12.7592 32.7591 12.9042H19.7596V10.1847H29.55L28.5166 10.8917C28.4622 10.2572 28.2809 9.71327 27.9727 9.26001C27.6826 8.78862 27.2928 8.43508 26.8033 8.19939C26.3319 7.94556 25.788 7.81865 25.1715 7.81865C24.4644 7.81865 23.848 7.97276 23.3222 8.28097C22.8146 8.57106 22.4248 9.00619 22.1528 9.58636C21.8809 10.1665 21.7449 10.8555 21.7449 11.6532C21.7449 12.4509 21.8809 13.1399 22.1528 13.7201C22.4248 14.3002 22.8146 14.7444 23.3222 15.0526C23.848 15.3427 24.4644 15.4878 25.1715 15.4878C25.8786 15.4878 26.4678 15.3699 26.9392 15.1342C27.4106 14.8985 27.8004 14.545 28.1086 14.0736H32.4599C32.188 15.0526 31.6984 15.9229 30.9914 16.6844C30.3024 17.4277 29.4503 18.0079 28.435 18.4249C27.4197 18.8238 26.3228 19.0232 25.1443 19.0232Z" fill="#F2F2F6"/>
<path d="M36.3907 18.6968V1.15576H40.6332V15.0255H44.7125V18.6968H36.3907ZM33.5352 8.22658V4.82715H44.0326V8.22658H33.5352Z" fill="#F2F2F6"/>
<path d="M51.8331 19.0232C50.6909 19.0232 49.6212 18.724 48.624 18.1257C47.645 17.5274 46.8563 16.6662 46.258 15.5422C45.6778 14.4181 45.3877 13.1218 45.3877 11.6532C45.3877 10.1847 45.6778 8.88834 46.258 7.76426C46.8563 6.64018 47.645 5.77899 48.624 5.18069C49.6212 4.58239 50.6909 4.28324 51.8331 4.28324C52.8665 4.28324 53.773 4.5008 54.5526 4.93593C55.3503 5.37106 55.9487 5.9059 56.3475 6.54046H56.4835V4.60959H60.4812V18.6968H56.4835V16.766H56.3475C55.9487 17.4187 55.3594 17.9626 54.5798 18.3977C53.8002 18.8147 52.8846 19.0232 51.8331 19.0232ZM53.0297 15.3518C53.6642 15.3518 54.2263 15.2068 54.7158 14.9167C55.2053 14.6085 55.577 14.1824 55.8308 13.6385C56.1028 13.0764 56.2387 12.4147 56.2387 11.6532C56.2387 10.8917 56.1028 10.239 55.8308 9.69514C55.577 9.1331 55.2053 8.70704 54.7158 8.41695C54.2263 8.10874 53.6642 7.95463 53.0297 7.95463C52.3589 7.95463 51.7696 8.10874 51.262 8.41695C50.7724 8.70704 50.3917 9.1331 50.1198 9.69514C49.8659 10.239 49.739 10.8917 49.739 11.6532C49.739 12.4147 49.8659 13.0764 50.1198 13.6385C50.3917 14.1824 50.7724 14.6085 51.262 14.9167C51.7696 15.2068 52.3589 15.3518 53.0297 15.3518Z" fill="#F2F2F6"/>
<path d="M70.4363 19.0368H67.1729L67.744 15.7734H71.0346L70.4363 19.0368Z" fill="#F2F2F6"/>
<path d="M80.1863 19.0368H75.9982L74.2849 5.35751H77.1948L78.3914 15.5558H79.0169L83.8849 5.35751H87.6379L88.9432 15.5558H89.5415L94.3551 5.35751H97.5098L90.9829 19.0368H86.7948L85.5166 9.13768H84.9183L80.1863 19.0368Z" fill="#F2F2F6"/>
<path d="M104.96 19.336C103.6 19.336 102.367 19.055 101.262 18.4929C100.174 17.9309 99.3216 17.1513 98.7051 16.1541C98.0887 15.1388 97.7805 13.9966 97.7805 12.7275C97.7805 11.3496 98.134 10.0805 98.8411 8.92011C99.5482 7.74164 100.518 6.80793 101.751 6.11898C102.984 5.4119 104.362 5.05836 105.885 5.05836C107.245 5.05836 108.468 5.33938 109.556 5.90142C110.644 6.46346 111.496 7.25213 112.113 8.26742C112.729 9.26459 113.037 10.3977 113.037 11.6669C113.037 13.0266 112.684 14.2958 111.977 15.4742C111.269 16.6527 110.299 17.5955 109.067 18.3025C107.834 18.9915 106.465 19.336 104.96 19.336ZM105.096 16.7524C106.093 16.7524 106.982 16.5348 107.761 16.0997C108.541 15.6465 109.148 15.0482 109.583 14.3048C110.018 13.5433 110.236 12.7275 110.236 11.8572C110.236 10.6062 109.81 9.59094 108.958 8.81133C108.124 8.03173 107.045 7.64193 105.722 7.64193C104.743 7.64193 103.863 7.86856 103.084 8.32181C102.304 8.75694 101.697 9.35524 101.262 10.1167C100.826 10.8601 100.609 11.6669 100.609 12.5371C100.609 13.7881 101.026 14.8034 101.86 15.583C102.694 16.3626 103.773 16.7524 105.096 16.7524Z" fill="#F2F2F6"/>
<path d="M114.956 19.0368L117.376 5.35751H119.851L119.878 6.5813H120.041C120.44 6.14618 120.848 5.83796 121.265 5.65666C121.682 5.45722 122.199 5.35751 122.815 5.35751H125.997L125.562 7.96827H122.462C121.592 7.96827 120.875 8.1949 120.313 8.64816C119.77 9.10142 119.425 9.75411 119.28 10.6062L117.784 19.0368H114.956Z" fill="#F2F2F6"/>
<path d="M129.154 19.0368H126.326L129.698 0H132.527L130.487 11.5853L137.966 5.35751H141.827L133.424 12.2108L139.434 19.0368H135.844L130.296 12.5371L129.154 19.0368Z" fill="#F2F2F6"/>
<path d="M145.36 12.7481L146.55 7.50518C146.618 7.22105 146.714 6.96172 146.839 6.7272C146.964 6.49268 147.142 6.30551 147.373 6.1657C147.608 6.02138 147.919 5.94922 148.303 5.94922C148.577 5.94922 148.811 5.99432 149.003 6.08452C149.2 6.17472 149.349 6.30551 149.45 6.47689C149.556 6.64827 149.609 6.85348 149.609 7.09251C149.609 7.33154 149.561 7.54351 149.465 7.72842C149.373 7.90883 149.236 8.05991 149.054 8.18168C148.871 8.29894 148.642 8.38689 148.368 8.44552C148.618 8.49513 148.83 8.61013 149.003 8.79054C149.181 8.96643 149.27 9.2235 149.27 9.56175C149.27 9.79176 149.232 10.006 149.155 10.2044C149.078 10.4029 148.965 10.5765 148.816 10.7253C148.671 10.8742 148.491 10.9892 148.274 11.0704C148.063 11.1515 147.818 11.1921 147.539 11.1921C147.26 11.1921 147.036 11.1538 146.868 11.0771C146.699 10.9959 146.555 10.9125 146.435 10.8268L145.988 12.7481H145.36ZM147.488 10.705C147.685 10.705 147.856 10.6735 148 10.6103C148.145 10.5472 148.265 10.4638 148.361 10.36C148.457 10.2563 148.529 10.1368 148.577 10.0015C148.626 9.86618 148.65 9.72862 148.65 9.58881C148.65 9.40841 148.616 9.2483 148.549 9.10849C148.481 8.96868 148.373 8.85819 148.224 8.77701C148.075 8.69583 147.875 8.65524 147.625 8.65524H147.394L147.495 8.20198H147.762C147.974 8.20198 148.154 8.17492 148.303 8.1208C148.457 8.06668 148.582 7.99226 148.678 7.89755C148.775 7.79833 148.844 7.68332 148.888 7.55253C148.936 7.42174 148.96 7.28193 148.96 7.1331C148.96 6.93466 148.9 6.77004 148.779 6.63925C148.664 6.50395 148.484 6.4363 148.238 6.4363C148.012 6.4363 147.83 6.48817 147.69 6.5919C147.551 6.69112 147.442 6.82416 147.365 6.99104C147.289 7.1534 147.228 7.33154 147.185 7.52547L146.529 10.4209C146.644 10.5066 146.788 10.5765 146.961 10.6306C147.135 10.6802 147.31 10.705 147.488 10.705Z" fill="#F2F2F6"/>
</svg>

<svg xmlns="http://www.w3.org/2000/svg" width="150" height="24" fill="none"><path fill="#F2F2F6" d="M2.366 24v-3.671h8.43v-3.753h-.135q-.571.843-1.714 1.414-1.142.57-2.665.57-1.74 0-3.182-.87-1.413-.897-2.257-2.501Q0 13.556 0 11.436 0 9.342.87 7.71q.898-1.632 2.366-2.53a6.13 6.13 0 0 1 3.21-.897q1.55 0 2.692.653 1.17.626 1.767 1.604h.136V4.61h3.998V24zm5.249-9.11q.951 0 1.659-.409.734-.407 1.115-1.169.408-.789.408-1.876 0-1.088-.408-1.877a2.65 2.65 0 0 0-1.115-1.196q-.708-.408-1.66-.408-.978 0-1.713.408T4.76 9.559q-.408.788-.408 1.877 0 1.087.408 1.876a2.84 2.84 0 0 0 1.142 1.17q.735.408 1.714.408M25.144 19.023q-2.148 0-3.916-.952a7.3 7.3 0 0 1-2.747-2.665q-1.006-1.686-1.006-3.753 0-2.094 1.006-3.78a7.1 7.1 0 0 1 2.747-2.638q1.768-.952 3.916-.952 2.122 0 3.835.925a6.8 6.8 0 0 1 2.747 2.665q1.033 1.74 1.033 4.08v.9510000000000001h-13v-2.72h9.791l-1.033.708q-.082-.953-.544-1.632a2.75 2.75 0 0 0-1.17-1.06q-.707-.381-1.631-.381-1.062 0-1.85.462-.76.435-1.17 1.305-.407.87-.407 2.067t.408 2.067 1.17 1.333q.787.435 1.849.435 1.06 0 1.767-.354t1.17-1.06h4.35a6.25 6.25 0 0 1-1.468 2.61q-1.033 1.116-2.556 1.74-1.523.6-3.29.6M36.39 18.697V1.156h4.243v13.87h4.08v3.67zm-2.855-10.47v-3.4h10.498v3.4zM51.833 19.023q-1.713 0-3.209-.897-1.469-.898-2.366-2.584-.87-1.686-.87-3.889t.87-3.889q.897-1.686 2.366-2.583a6.13 6.13 0 0 1 3.21-.898q1.549 0 2.719.653 1.196.653 1.794 1.604h.136V4.61h3.998v14.087h-3.998v-1.931h-.136q-.598.98-1.767 1.632-1.17.625-2.747.625m1.197-3.671q.951 0 1.686-.435.734-.463 1.115-1.278.408-.844.408-1.986t-.408-1.958q-.381-.843-1.115-1.278-.735-.462-1.686-.462-1.006 0-1.768.462-.734.435-1.142 1.278-.381.816-.381 1.958t.38 1.986q.409.815 1.143 1.278.762.435 1.768.435M70.436 19.037h-3.263l.571-3.264h3.29zM80.186 19.037h-4.188l-1.713-13.68h2.91l1.196 10.199h.626l4.868-10.198h3.753l1.305 10.198h.599l4.813-10.198h3.155l-6.527 13.679h-4.188l-1.278-9.9h-.599zM104.96 19.336q-2.04 0-3.698-.843-1.632-.843-2.557-2.339-.924-1.522-.924-3.427a7.2 7.2 0 0 1 1.06-3.807 7.7 7.7 0 0 1 2.91-2.801q1.85-1.06 4.134-1.06 2.04 0 3.671.842a6.3 6.3 0 0 1 2.557 2.366q.924 1.496.924 3.4 0 2.04-1.06 3.807-1.062 1.769-2.91 2.828-1.85 1.034-4.107 1.034m.136-2.584q1.496 0 2.665-.652a4.94 4.94 0 0 0 1.822-1.795 4.86 4.86 0 0 0 .653-2.448q0-1.875-1.278-3.046-1.251-1.17-3.236-1.17-1.469.001-2.638.68a4.7 4.7 0 0 0-1.822 1.796 4.7 4.7 0 0 0-.653 2.42q0 1.876 1.251 3.046t3.236 1.17M114.956 19.037l2.42-13.68h2.475l.027 1.224h.163q.599-.652 1.224-.924.626-.3 1.55-.3h3.182l-.435 2.611h-3.1q-1.305 0-2.149.68-.815.68-1.033 1.958l-1.496 8.43zM129.154 19.037h-2.828L129.698 0h2.829l-2.04 11.585 7.479-6.227h3.861l-8.403 6.853 6.01 6.826h-3.59l-5.548-6.5zM145.36 12.748l1.19-5.243q.102-.426.289-.778.188-.351.534-.561.353-.217.93-.217.411 0 .7.136.296.134.447.392.159.256.159.616 0 .358-.144.635-.138.27-.411.454a2.1 2.1 0 0 1-.686.264q.375.074.635.345.267.263.267.77 0 .346-.115.643a1.49 1.49 0 0 1-.881.866 2 2 0 0 1-.735.122q-.419 0-.671-.115a3 3 0 0 1-.433-.25l-.447 1.921zm2.128-2.043q.296 0 .512-.095.217-.094.361-.25t.216-.358a1.2 1.2 0 0 0-.028-.894.75.75 0 0 0-.325-.331q-.224-.122-.599-.122h-.231l.101-.453h.267q.318 0 .541-.081a1 1 0 0 0 .375-.223.9.9 0 0 0 .21-.345q.072-.197.072-.42a.7.7 0 0 0-.181-.494q-.172-.203-.541-.203-.339 0-.548.156a1 1 0 0 0-.325.399 2.6 2.6 0 0 0-.18.534l-.656 2.896q.172.128.432.21.26.075.527.074"/></svg>
